src/assets/img/icon-zoomin-small-white.svg

<svg xmlns="http://www.w3.org/2000/svg" viewBox="0 0 11 10"><g data-name="Слой 2"><path d="M0 0h3v1H1v2H0zm1 9h2v1H0V7h1zm10-9v3h-1V1H8V0zm-1 7h1v3H8V9h2z" fill="#aea2bc" data-name="Layer 1"/></g></svg>

<svg xmlns="http://www.w3.org/2000/svg" viewBox="0 0 11 10"><defs><style>.cls-1{fill:#aea2bc;}</style></defs><title>icon-zoomin-medium-white</title><g id="Слой_2" data-name="Слой 2"><g id="Layer_1" data-name="Layer 1"><path class="cls-1" d="M0,0H3V1H1V3H0ZM1,9H3v1H0V7H1ZM11,0V3H10V1H8V0ZM10,7h1v3H8V9h2Z"/></g></g></svg>
